X:1
T:Aviemore, 66.46.664
T:Roger M. Hickman (1888-1968)
T:Aviemore, 66.46.664
T:Public Domain
C:Roger M. Hickman (1888-1968)
Z:Public Domain
%%score ( 1 2 ) ( 3 4 )
L:1/8
M:3/4
K:G
V:1 treble 
V:2 treble 
V:3 bass 
V:4 bass 
V:1
 [B,D]2 [B,G]2 [DB]2 | [DB]4 [CA]2 | [B,G]6 | [DG]2 [GB]2 [Gd]2 | (G2 F2) [Fc]2 | [GB]6 | %6
 [GA]2 [GA]2 [G^c]2 | [Fd]6 | [Gd]2 [Ge]2 [Gd]2 | [Fd]3 [Fc] [Fc]2 | [Fc]2 [Fd]2 [Fc]2 | %11
 [Gc]3 [GB] [GB]2 | [GB]2 [FA]2 [=FG]2 | [EG]3 [CE] [CE]2 | [CD]2 [CE]2 [CF]2 | [B,G]6 |] %16
V:2
 x6 | x6 | x6 | x6 | d4 x2 | x6 | x6 | x6 | x6 | x6 | x6 | x6 | x6 | x6 | x6 | x6 |] %16
V:3
 G,2 G,2 G,2 | [D,G,]4 [D,F,]2 | [G,,G,]6 | [G,B,]2 [G,D]2 [G,B,]2 | (B,2 A,2) [D,D]2 | [G,D]6 | %6
 [A,^C]2 [A,C]2 [A,,A,]2 | (A,4 C2) | [G,B,]2 [G,C]2 [G,B,]2 | [D,A,]3 [D,A,] [D,A,]2 | %10
 [D,A,]2 [D,A,]2 [D,D]2 | [G,E]3 [G,D] [G,D]2 | [G,D]2 [A,D]2 [B,D]2 | C3 [C,G,] [C,G,]2 | %14
 [D,F,]2 [D,G,]2 [D,A,]2 | [G,,G,]6 |] %16
V:4
 G,2 G,2 G,2 | x6 | x6 | x6 | D,4 x2 | x6 | x6 | D,6 | x6 | x6 | x6 | x6 | x6 | C3 x3 | x6 | x6 |] %16

